X:1
T:Confitemini Domino - Costantini
T:James Gibb editions
T:#
%%score [ 1 2 3 ]
L:1/8
M:2/2
K:C
V:1 treble-8 nm="Tenor I" snm="T1"
V:2 treble-8 nm="Tenor II" snm="T2"
V:3 treble-8 nm="Tenor III" snm="T3"
V:1
 d2 d2 d4- | d2"^Confitemini Domino" d2 d4 | e6 e2 | d4 d4- | %4
w: Con- fi- te\-|* mi- ni|Do- mi-|no, quo\-|
"^Alessandro Costantini\n(c.1581-1657)" d2 d2 f4 | e8 |[M:2/2][K:treble-8] d8 | e2 e2 e4- | %8
w: * ni- am|bo-|nus,|Con- fi- te\-|
 e2 e2 e2 (e2- | e2 dc d3) d | e4 c4- | c4 c4 | c8 | d8 | c8 | e3 e e2 d2 | c3 c B4 | %17
w: * mi- ni Do\-|* * * * mi-|no, quo\-|* ni-|am|bo-|nus,|quo- ni- am in|sae- cu- lum|
 z2 A2 B2 ^c2 | d3 d =c4 | B8 | A4 z4 | z2 B2 c2 d2 | e3 e e4 | d8 | c8 | c3 c c2 B2 | A6 ^G2 | %27
w: mi- se- ri-|cor- di- a|e-|ius,|mi- se- ri-|cor- di- a|e-|ius.|Quo- ni- am in|sae- cu-|
 A2 c2 d2 e2 | f3 f f4 | e8 | d8 ||[M:3/2][Q:1/4=240] A4 A4 B4 | %32
w: lum mi- se- ri-|cor- di- a|e-|ius.|Al- le- lu-|
[M:3/2][K:treble-8][Q:1/4=240][Q:1/4=240][Q:1/4=240] (c6 B2 A4) | B4 e6 e2 | d4 (e6 d2 | %35
w: ia * *|al- le- lu-|ia, al\- *|
 c4) B4 B4 | A12 | z12 | c4 c4 d4 | (e2 d2 c2 B2 A4) | _B4 A4 G4 | F2 A2 A4 =B4 | (c6 B2 A4) | %43
w: * le- lu-|ia,||al- le- lu-|ia, * * * *|al- le- lu-|ia, al- le- lu-|ia, * *|
 (B6 A2 B2 c2 | d4) d4 ^c4 | d12 | d4 d4 =c4 | (B6 c2 d4) | %48
w: al\- * * *|* le- lu-|ia,|al- le- lu-|ia, * *|
[Q:1/4=236] G6[Q:1/4=231] A2[Q:1/4=228] B4 | %49
w: al- le- lu-|
[Q:1/4=222] (c6[Q:1/4=218] B[Q:1/4=217]A[Q:1/4=214] G4) | %50
w: ia, * * *|
[Q:1/4=210] G4[Q:1/4=206] A4[Q:1/4=202] A4 |[Q:1/4=200] G12 |] %52
w: al- le- lu-|ia.|
V:2
 B2 B2 B4- | B2 A2 B4 | c6 c2 | B4 B4- | B2 B2 d2 (d2- | d2 ^cB c4) |[M:2/2][K:treble-8] d8 | %7
w: Con- fi- te\-|* mi- ni|Do- mi-|no, quo\-|* ni- am bo\-||nus,|
 c2 c2 c4- | c2 c2 c4 | A6 A2 | G8 | z4 A4- | A2 A2 c2 (c2- | c2 BA B4) | c8 | c3 c c2 B2 | %16
w: Con- fi- te\-|* mi- ni|Do- mi-|no,|quo\-|* ni- am bo\-||nus,|quo- ni- am in|
 A3 A E4 | z4 z2 E2 | ^F2 ^G2 A3 A | ^G2 (A4 G2) | A4 z4 | z2 G2 A2 B2 | c3 c c4 | (B2 c4 B2) | %24
w: sae- cu- lum|mi-|se- ri- cor- di-|a e\- *|ius,|mi- se- ri-|cor- di- a|e\- * *|
 c4 z4 | e3 e e2 d2 | c3 c B4 | z2 A2 B2 ^c2 | d3 d d4 | (^c2 d4 c2) | d8 ||[M:3/2] z12 | %32
w: ius.|Quo- ni- am in|sae- cu- lum|mi- se- ri-|cor- di- a|e\- * *|ius.||
[M:3/2][K:treble-8] E4 E4 ^F4 | G2 G2 G4 A4 | B4 (c6 B2 | A4) A4 ^G4 | A12 | z12 | A4 A4 B4 | %39
w: Al- le- lu-|ia, al- le- lu-|ia, al\- *|* le- lu-|ia,||al- le- lu-|
 (c2 B2 A2 G2 F4) | (D2 E2) F6 E2 | F2 c2 c4 d4 | e12 | (d6 c2 d2 e2 | f4) e4 e4 | d12 | z12 | %47
w: ia, * * * *|al\- * le- lu-|ia, al- le- lu-|ia,|al\- * * *|* le- lu-|ia,||
 z12 | G4 G4 F4 | E6 (D2 E2 F2 | G4) G4 ^F4 | G12 |] %52
w: |al- le- lu-|ia, al\- * *|* le- lu-|ia.|
V:3
 G2 G2 G4- | G2 ^F2 G4 | C6 C2 | G4 G4- | G2 G2 D4 | A8 |[M:2/2][K:treble-8] D8 | A2 A2 A4- | %8
w: Con- fi- te\-|* mi- ni|Do- mi-|no, quo\-|* ni- am|bo-|nus,|Con- fi- te\-|
 A2 A2 A4 | F6 F2 | E8 | z4 F4- | F2 F2 A4 | G8 | C8 | z8 | A3 A A2 G2 | F3 F E4 | z8 | z8 | %20
w: * mi- ni|Do- mi-|no,|quo\-|* ni- am|bo-|nus,||quo- ni- am in|sae- cu- lum|||
 z2 D2 E2 ^F2 | G3 G =F4 | (E6 F2 | G8) | C8 | z8 | z2 C2 D2 E2 | F6 E2 | D8 | A8 | D8 || %31
w: mi- se- ri-|cor- di- a|e\- *||ius.||mi- se- ri-|cor- di-|a|e-|ius.|
[M:3/2] z12 |[M:3/2][K:treble-8] z12 | E4 E4 ^F4 | (G6 ^F2 E4) | !courtesy!=F4 D4 E4 | A12 | %37
w: ||Al- le- lu-|ia, * *|al- le- lu-|ia,|
 D4 D4 E4 | F6 E2 D4 | C8 z4 | z12 | z12 | E4 E4 ^F4 | G12 | D4 A4 A4 | D12 | z12 | G4 G4 F4 | %48
w: al- le- lu-|ia, * *||||al- le- lu-|ia,|al- le- lu-|ia||al- le- lu-|
 E4 E4 D4 | C4 C4 C4 | E4 D8 | G12 |] %52
w: ia, al- le-|lu- ia, al-|le- lu-|ia.|

